motif/src/controls/boolean/button/icon/svg-button/ng/svg/noun-expand-vertical-2439362.svg

<symbol fill="currentcolor" viewBox="0 0 24 24" id="only" xmlns="http://www.w3.org/2000/svg">
<path d="M15 10a1 1 0 0 1-.71-.29L12 7.41l-2.29 2.3a1 1 0 0 1-1.42-1.42l3-3a1 1 0 0 1 1.41 0l3 3A1 1 0 0 1 15 10ZM12 19a1 1 0 0 1-.71-.29l-3-3A1 1 0 0 1 9.7 14.3l2.3 2.29 2.29-2.29a1 1 0 0 1 1.41 1.41l-3 3a1 1 0 0 1-.7.29ZM19 22H5a1 1 0 0 1 0-2h14a1 1 0 0 1 0 2ZM19 4H5a1 1 0 0 1 0-2h14a1 1 0 0 1 0 2Z"/>
<path d="M12 19a1 1 0 0 1-1-1V6a1 1 0 0 1 2 0v12a1 1 0 0 1-1 1Z"/>
</symbol>

<svg height='100px' width='100px' fill="currentcolor" xmlns="http://www.w3.org/2000/svg" viewBox="0 0 24 24" x="0px" y="0px"><title>expand-vertical</title><path d="M15,10a1,1,0,0,1-.71-.29L12,7.41,9.71,9.71A1,1,0,0,1,8.29,8.29l3-3a1,1,0,0,1,1.41,0l3,3A1,1,0,0,1,15,10Z"></path><path d="M12,19a1,1,0,0,1-.71-.29l-3-3a1,1,0,0,1,1.41-1.41L12,16.59l2.29-2.29a1,1,0,0,1,1.41,1.41l-3,3A1,1,0,0,1,12,19Z"></path><path d="M19,22H5a1,1,0,0,1,0-2H19a1,1,0,0,1,0,2Z"></path><path d="M19,4H5A1,1,0,0,1,5,2H19a1,1,0,0,1,0,2Z"></path><path d="M12,19a1,1,0,0,1-1-1V6a1,1,0,0,1,2,0V18A1,1,0,0,1,12,19Z"></path></svg>
